X:1
T:4 Songs, Op.43
T:Das Lied vom Herrn von Falkenstein
T:4. Das Lied vom Herrn von Falkenstein
T:Johannes Brahms
T:Aus Uhlands Volksliedern
T:4 Songs, Op.43
T:OpenScore (CC0)
T:OpenScore (CC0)
T:OpenScore (CC0)
T:OpenScore (CC0)
T:OpenScore (CC0)
T:OpenScore (CC0)
T:OpenScore (CC0)
C:Johannes Brahms
Z:Aus Uhlands Volksliedern
Z:OpenScore (CC0)
%%score ( 1 2 ) { ( 3 5 ) | ( 4 6 ) }
L:1/8
Q:1/4=120
M:4/4
K:Eb
V:1 treble nm="Voice"
V:2 treble 
V:3 treble nm="Piano"
V:5 treble 
V:4 bass 
V:6 bass 
V:1
"^Allegro" .G2 |"^Sehr kräftig" .C2 .D2 .E2 .G2 | .c2 .G2 .C2 D2 | E2 F F G2 e2 | (E2 F2) G2 d2 | %5
w: 1. Es|reit der Herr von|Fal- ken- stein wohl|ü- ber ein' brei- te|Hei- * de. Was|
w: |||||
 G6 d2 | G2 d2 G2 e2 | c6 f2 | e2 _d d c2 (AB) | c4 G2 G2 | (c4 G4) | C4 z4 |: z8 | z8 | z8 | z8 | %16
w: sieht er|an dem We- ge|stehn? Ein|Mä- del mit weis- sem _|Klei- de, ja|Klei- *|de.|||||
w: |||||||||||
 z8 | z4 z2 G2 | C2 D D E2 G2 | c2 G2 C2 D2 | E2 F2 G2 e2 | (E2 F2) G2 d d | G6 d2 | %23
w: |2. "Gott|grüs- se Euch Herrn von|Fal- ken- stein! seid|Ihr des Lands ein|Her- * re, ei so|gebt mir|
w: ||fang- nen * mein, den|geb ich nicht, im|Turm muss er ver-|fau- * len! Zu *|Fal- ken-|
 G G d d G2 e2 | c6 f2 | e2 _d d c2 (AB) | c4 G2 G2 | (c4 G4) | C4 z4 :| z8 | z8 | z8 | z8 | z8 | %34
w: wie- der den Ge- fang- nen|mein um|al- ler Jung frau- en *|Eh- re, ja|Eh- *|re!"||||||
w: stein * steht ein tie- fer|Turm, wohl|zwi- schen  zwei ho- hen *|Mau- ren, ja|Mau- *|ren."||||||
 z4"^animato" z2 G G[Q:1/4=130] | c2 G2 c2 G2 | c2 G2 E2 B2 | e2 B B e2 B2 | (e2 B2) G2 A2 | %39
w: 4. "Steht zu|Fal- ken- stein ein|tie- fer Turm wohl|zwi- schen  zwei ho- hen|Mau- * ren, so|
w: |||||
 G6 A2 | G2 A2 G2 e2 | c6 _d2 | c2 B2 e2 (cB) | A4 G2 G2 | (A4 G4) | G4 z4 | z8 | z8 | z8 | z8 | %50
w: will ich|an die Mau- ren|stehn, und|will ihm hel- fen *|trau- ren, ja|trau- *|ren."|||||
w: |||||||||||
 z8 | z8 ||[K:Ab]"^drängend" z2 c2 c2 c2 | (cB) B2 A2 A2 | (dc) c2 B2 d2 | (dc) c2 B2 B2 | %56
w: ||5. Sie ging den|Turm * wohl um und|wie- * der um: "Feins-|lieb * bist du dar-|
w: ||||||
 (e2 d2) c2 c2 | (c=d) (.d2 .d2 .d2) | (=de) (.e2 .e2 .e2) | (ef) f f f2 f2 |!<(! (f4!<)! g4) | %61
w: in- * nen? Und|wenn * ich dich  nicht|se- * hen kann, so|komm * ich von mei- nen|Sin- *|
w: |||||
 e4 z4 | z2 c2 c2 c2 | (cB) B2 A2 A2 | (dc) c2 B2 d2 | (dc) c2 B2 B2 | (e2 d2) c2 c2 | %67
w: nen."|6. Sie ging den|Turm * wohl um und|wie- * der um, den|Turm * wollt sie auf-|schlies- * sen: "Und|
w: ||||||
 (c=d) (.d2 .d2 .d2) | (=de) (.e2 .e2 .e2) | (ef) (.f2 .f2 .f2) |!<(! (f4!<)! g4) | %71
w: wenn * die Nacht  ein|Jahr * lang wär, kein|Stund * tät mich ver-|dries- *|
w: ||||
 e4 z2!f!"^sehr lebhaft" G2 ||[K:Eb] .c2 .G2 .c2 .G2 | .c2 .G2 .E2 B2 | e2 B2 e2 B2 | %75
w: sen." 7. "Ei,|dörft ich schar- fe|Mes- ser trag'n, wie|un- sers Herrn sein|
w: ||||
 (e2 B2) G2 !>!A2 | G6 A A |!<(! G2 c2 =B2 e2!<)! | c6 _d2 | c2 B B e2 (cB) | A4 G2 G2 | (A4 G4) | %82
w: Knech- * te, so|tät ich mit|Dem von Fal- ken-|stein um|mei- nen Herz- lieb- sten *|fech- ten, ja|fech- *|
w: |||||||
 G4 z4 | z8 | z8 | z8 | z8 | z8 | z4 z2 G2 | C2 D2 E2 G2 | c2 G2 C2 D2 | E2 F2 G2 e2 | %92
w: ten!"||||||8. "Mit|ei- ner Jung- frau|fecht ich nicht, das|wär mir ei- ne|
w: ||||||||||
 (E2 F2) G2 d2 | G6 d2 | G2 d d G2 e2 | c6 f2 | e2 _d2 c2 (AB) | c4 G2 G2 | (c4 G4) | C4 z4 | z8 | %101
w: Schan- * de! Ich|will dir|dei- nen Ge- fang- nen|gebn, zieh|mit ihm aus dem *|Lan- de, ja|Lan- *|de."||
w: |||||||||
 z8 | z8 | z8 | z8 | z4 z2!f! G2 | c2 G2 c2 G2 | c2 G2 E2 B2 | e2 B2 e2 B2 | (e2 B2) G2 A2 | %110
w: ||||9. "Wohl|aus dem Land da|zieh ich nicht, hab|Nie- mand was ge-|stoh- * len; und|
w: |||||||||
 G6 A2 | G2 c2 =B2 e2 | c6[Q:1/4=120] f2 | e2 _d2 c2 (AB) |[Q:1/4=110] c4 G2 G2 | %115
w: wenn ich|was hab lie- gen|lahn, so|darf ichs wie- der *|ho- len, ja|
w: |||||
[Q:1/4=100] (c4 G4) | C4 z2 |] %117
w: ho- *|len."|
w: ||
V:2
 x2 | x8 | x8 | x8 | x8 | x8 | x8 | x8 | x8 | x8 | x8 | x8 |: x8 | x8 | x8 | x8 | x8 | x6 G G | %18
w: ||||||||||||||||||
w: |||||||||||||||||3. "Den Ge \-|
 x2 D2 x4 | x8 | x8 | x6 d2 | x8 | G2 x6 | x8 | x8 | x8 | x8 | x8 :| x8 | x8 | x8 | x8 | x8 | x8 | %35
w: |||||||||||||||||
w: |||||||||||||||||
 x8 | x8 | x8 | x8 | x8 | x8 | x8 | x8 | x8 | x8 | x8 | x8 | x8 | x8 | x8 | x8 | x8 ||[K:Ab] x8 | %53
w: ||||||||||||||||||
w: ||||||||||||||||||
 x8 | x8 | x8 | x8 | x8 | x8 | x8 | x8 | x8 | x8 | x8 | x8 | x8 | x8 | x8 | x8 | x8 | x8 | x8 || %72
w: |||||||||||||||||||
w: |||||||||||||||||||
[K:Eb] x8 | x8 | x8 | x8 | x8 | x8 | x8 | x8 | x8 | x8 | x8 | x8 | x8 | x8 | x8 | x8 | x8 | x8 | %90
w: ||||||||||||||||||
w: ||||||||||||||||||
 x8 | x8 | x8 | x8 | x8 | x8 | x8 | x8 | x8 | x8 | x8 | x8 | x8 | x8 | x8 | x8 | x8 | x8 | x8 | %109
w: |||||||||||||||||||
w: |||||||||||||||||||
 x8 | x8 | x8 | x8 | x8 | x8 | x8 | x6 |] %117
w: ||||||||
w: ||||||||
V:3
!f! .G2 | .C2 .D2 .E2 .G2 | .c2 .G2 .C2 .D2 | .E2 .F2 .G2 .e2 | (E2 F2) .G2 .d2 | G6 .d2 | %6
 .G2 .d2 .G2 .e2 | c6 (f2 | e2 _d2 c2) AB | (c4 G2) G2 | (c4 G4) |!<(! (C4!<)!!f! ([Gce]4) |: %12
 [Fcd]2) z2 ([Gce]4 | [Fcd]2) z2 ([Bcg]4 | [Acf]2 [Gce]2 [Fcd]2 [Acf]2 | %15
 [Gce]2 [F=Bd]2 [Ec]2) (!>![FBd]2 | [Ec]6) (!>![F=Bd]2 | [Ec]6)!p! z .G | z .Cz.Dz.Ez.G | %19
 z .cz.Gz.Cz.D | z .Ez.Fz.Gz.e | z .Ez.Fz.G z !>!d | z G3- G2 z !>!d | z GzdzGze | %24
 z c3- c2!f! ([FAf]2 | [EAe]2 [_DG_d]2 [CAc]2) ([A,A][B,B]) | ([Cc]4 [=B,G]2) [B,DG]2 | %27
 [CEc]4 [G,DG]4 |!<(![I:staff +1] [C,C]4!<)!!f![I:staff -1] ([Gce]4 :| [Fcd]2) z2 ([Gce]4 | %30
 [Fcd]2) z2 ([Bcg]4 | [Acf]2 [Gce]2 [Fcd]2 [Acf]2 | [Gce]2 [F=Bd]2 [Ec]2) (!>![FBd]2 | %33
 [Ec]6) (!>![F=Bd]2 | [Ec]6)!p! z [=B,DG] | z [CEc] z [=B,DG] z [CEc] z [B,DG] | %36
 z [Ec] z [=B,DG] z [CE] z [DF_B] | z [EGe] z [DFB] z [EGe] z [GB] | %38
 z [EGe] z [DFB] z [EG] z [CFA] | z [=B,FG]3- [B,FG]2 z [CFA] | %40
 z [=B,FG]!<(! z [CFA] z [B,FG] z [Gce]!<)! | z [Ec]3- [Ec]2 ([A_d]2 | %42
 [Gc]2 [FB]2 [Ee]2)!<(! ([Ec][_DB]) | z!<)!!>(! [EA]2 [EA] z!>)! [C=DG]2!<(! [=B,DG] | %44
 z!<)! [CEA]2!>(! [CEA]2 [CDG]2!>)! [=B,DG] |!<(! [CEG]4!<)! ([Gce]4 | [Fcd]2) z2 ([Gce]4 | %47
 [Fcd]2) z2 ([Bcg]4 | [Acf]2 [Gce]2 [Fcd]2 [Acf]2 | [Gce]2 [F=Bd]2 [Ec]2) ([FBd]2 | %50
!>(! [Ec]6) ([F=Bd]2 | [Ec]6)!>)! [Ec]2 ||[K:Ab]!p! z2 (.[EAc]2 .[EAc]2 .[EAc]2) | %53
"_cresc." ([EA-c][DAB]) [DAB]2 (.[CA]2 .[CA]2) | ([FA-d][EAc]) [EAc]2 [DAB]2 [FAd]2 | %55
 ([FA-d][EAc]) [EAc]2 (.[DAB]2 .[DAB]2) | ([_GA-e][FAd]) [FAd]2 [EAc]2 [EAc]2 | %57
"_cresc." (c=d) (.[=DAcd]2 .[DAcd]2 .[DAcd]2) | B2 (.[EB=de]2 .[EBde]2 .[EBde]2) | %59
 c2 (.[Fcef]2 .[Fcef]2 .[Fcef]2) |!<(! ([FB=df]4!<)! [Bdg]4) | [GBe]4 z4 | %62
!p! z2 (.[EAc]2 .[EAc]2 .[EAc]2) |"_cresc." ([EA-c][DAB]) [DAB]2 (.[CA]2 .[CA]2) | %64
 ([FA-d][EAc]) [EAc]2 [DAB]2 [FAd]2 | ([FA-d][EAc]) [EAc]2 (.[DAB]2 .[DAB]2) | %66
 ([_GA-e][FAd]) [FAd]2 [EAc]2 [EAc]2 | (c=d) (.[=DAcd]2 .[DAcd]2 .[DAcd]2) | %68
 B2 (.[EB=de]2 .[EBde]2 .[EBde]2) | c2 (.[Fcef]2 .[Fcef]2 .[Fcef]2) |!<(! ([FB=df]4!<)! [Bdg]4) | %71
 [GBe]4 z2!f! z .[=B,=DG] ||[K:Eb] z [CEc] z [=B,DG] z [CEc] z [B,DG] | %73
 z [Ec] z [=B,DG] z [CE] z [DF_B] | z [EGe] z [DFB] z [EGe] z [GB] | %75
 z [EGe] z [DFB] z [EG] z [CFA] | z [=B,FG]3- [B,FG]2 z [CFA] | %77
!<(! z [=B,FG] z [FAc] z [FG=B] z!<)! [Gce] | z [EGc]3- [EGc]2 ([A_d]2 | %79
 [Gc]2 [FB]2 [EAe]2) ([Ec][_DB]) |!<(! z [EA]2!<)!!>(! [EA] z!>)! [C=DG]2 [=B,DG] | %81
!<(! z [CEA]2!<)!!>(! [CEA]2!>)! [CDG]2 [=B,DG] |!<(! [CEG]4!<)!!f! ([Gce]4 | [Fcd]2) z2 ([Gce]4 | %84
 [Fcd]2) z2 ([Bcg]4 | [Acf]2 [Gce]2 [Fcd]2 [Acf]2 | [Gce]2 [F=Bd]2 [Ec]2) (!>![FBd]2 | %87
 [Ec]6) (!>![F=Bd]2 | [Ec]6)!p! z .G | z .Cz.Dz.Ez.G | z .cz.Gz.Cz.D | z EzFzGze | z EzFzG z !>!d | %93
 z G3- G2 z !>!d |!<(! z GzdzGze!<)! | z c3- c2 ([FAf]2 | [EAe]2 [_DG_d]2 [CAc]2) ([A,A][B,B]) | %97
 ([Cc]4 [=B,G]2) [B,DG]2 | [CEc]4 [G,DG]4 |!<(![I:staff +1] [C,C]4!<)!!f![I:staff -1] ([Gce]4 | %100
 [Fcd]2) z2 ([Gce]4 | [Fcd]2) z2 ([Bcg]4 | [Acf]2 [Gce]2 [Fcd]2 [Acf]2 | %103
 [Gce]2 [F=Bd]2 [Ec]2) (!>![FBd]2 | [Ec]6) (!>![F=Bd]2 | [Ec]6) z [=B,DG] | %106
 z [CEc] z [=B,DG] z [CEc] z [B,DG] | z [Ec] z [=B,DG] z [CE] z [DF_B] | %108
 z [EGe] z [DFB] z [EGe] z [GB] | z [EGe] z [DFB] z [EG] z [FAc] | z [FG=B]3- [FGB]2 z [FAc] | %111
 z [FG=B] z [FAc] z [FGB] z [Gce] | z [Ec]3- [Ec]2 ([FAf]2 | [EAe]2 [_DG_d]2 [CAc]2) ([A,A][B,B]) | %114
 ([Cc]4 [=B,G]2) .[B,DG]2 | [CEc]4 [G,DG]4 | C4 z2 |] %117
V:4
 .[G,,G,]2 | .[C,,C,]2 .[D,,D,]2 .[E,,E,]2 .[G,,G,]2 | .[C,C]2 .[G,,G,]2 .[C,,C,]2 .[D,,D,]2 | %3
 .[E,,E,]2 .[F,,F,]2 .[G,,G,]2 .[E,E]2 | ([E,,E,]2 [F,,F,]2) .[G,,G,]2 .[D,D]2 | [G,,G,]6 .[D,D]2 | %6
 .[G,,G,]2 .[D,D]2 .[G,,G,]2 .[E,E]2 | [C,C]6 ([F,F]2 | [E,E]2 [_D,_D]2 [C,C]2) [A,,A,][B,,B,] | %9
 ([C,C]4 [G,,G,]2) [G,,G,]2 | ([C,C]4 [G,,G,]4) | [C,,C,]6 (C,,C,) |: C,2 (C,C) C2 (C,,C,) | %13
 C,2 (C,C) C2 (C,,C,) | C,2 (C,C) C2 (C,,C,) | C,2 (C,C) C2 (C,,C,) | C,2 (C,C) C2 (C,,C,) | %17
 C,2 (C,C) .C2 .[G,,G,]2 | .[C,,C,]2 .[D,,D,]2 .[E,,E,]2 .[G,,G,]2 | %19
 .[C,C]2 .[G,,G,]2 .[C,,C,]2 .[D,,D,]2 | .[E,,E,]2 .[F,,F,]2 .[G,,G,]2 .[E,E]2 | %21
 ([E,,E,]2 [F,,F,]2) .[G,,G,]2 .[D,D]2 | [G,,G,]6 .[D,D]2 | .[G,,G,]2 .[D,D]2 .[G,,G,]2 .[E,E]2 | %24
 [C,C]6 ([_D,_D]2 | [C,C]2 [B,,B,]2 [A,,A,]2) ([F,,F,][_D,,_D,]) | %26
 ([C,,C,]2 [A,,,A,,]2 [G,,,G,,]2) G,,2 | [C,,C,]4 [G,,,G,,]4 | [C,,,C,,]6 (C,,C,) :| %29
 C,2 (C,C) C2 (C,,C,) | C,2 (C,C) C2 (C,,C,) | C,2 (C,C) C2 (C,,C,) | C,2 (C,C) C2 (C,,C,) | %33
 C,2 (C,C) C2 (C,,C,) | C,2 (C,"^animato"C) .C2 .[G,,G,]2 | %35
 .[C,,C,]2 .[D,,D,]2 .[E,,E,]2 .[G,,G,]2 | [C,C]2 [G,,G,]2 [C,,C,]2 [D,,D,]2 | %37
 [E,,E,]2 [F,,F,]2 [G,,G,]2 [E,E]2 | ([E,,E,]2 [F,,F,]2) .[G,,G,]2 .[D,D]2 | [G,,G,]6 .[D,D]2 | %40
 .[G,,G,]2 .[D,D]2 .[G,,G,]2 .[E,E]2 | [C,C]6 ([F,F]2 | [E,E]2 [_D,_D]2 [C,C]2) ([A,,A,][B,,B,]) | %43
 ([C,C]4 [G,,G,]2)!p! G,,2 | (C,4 G,,4) | C,,6!f! (C,,C,) | C,2 (C,C) C2 (C,,C,) | %47
 C,2 (C,C) C2 (C,,C,) | C,2 (C,C) C2 (C,,C,) | C,2 (C,C) C2 (C,,C,) | C,2 (C,C) C2 (A,,,A,,) | %51
 A,,2 (A,,A,) A,2 (A,,,A,,) ||[K:Ab] (A,,2 E,A, C2 A,E,) | (A,,2 D,A, C2 A,E,) | %54
 A,,2 E,A, B,2 A,D, | A,,2 E,A, B,2 A,D, | A,,2 F,A, C2 A,E, | (F,,2 F,A, C2 A,F,) | %58
 (G,,2 G,B, =D2 B,G,) | A,,2 A,C E2 CA, | B,,2 B,=D A2 DB, | E,,2 G,B, E2 B,E, | %62
 (A,,2 E,A, C2 A,E,) | (A,,2 D,A, C2 A,E,) | A,,2 E,A, B,2 A,D, | A,,2 E,A, B,2 A,D, | %66
 A,,2 F,A, C2 A,E, | (F,,2 F,A, C2 A,F,) | (G,,2 G,B, =D2 B,G,) | A,,2 A,C E2 CA, | %70
 B,,2 B,=D A2 DB, | E,,2 G,B, E2 .[G,,G,]2 ||[K:Eb] .[C,,C,]2 .[D,,D,]2 .[E,,E,]2 .[G,,G,]2 | %73
 .[C,C]2 .[G,,G,]2 .[C,,C,]2 .[D,,D,]2 | [E,,E,]2 [F,,F,]2 [G,,G,]2 [E,E]2 | %75
 ([E,,E,]2 [F,,F,]2) [G,,G,]2 [D,D]2 | [G,,G,]6 [D,D]2 | [G,,G,]2 [D,D]2 [G,,G,]2 [E,E]2 | %78
 [C,C]6 ([F,F]2 | [E,E]2 [_D,_D]2 [C,C]2) ([A,,A,][B,,B,]) | ([C,C]4 [G,,G,]2) G,,2 | (C,4 G,,4) | %82
 C,,6 (C,,C,) | C,2 (C,C) C2 (C,,C,) | C,2 (C,C) C2 (C,,C,) | C,2 (C,C) C2 (C,,C,) | %86
 C,2 (C,C) C2 (C,,C,) | C,2 (C,C) C2 (C,,C,) | C,2 (C,C) C2 .[G,,G,]2 | %89
 .[C,,C,]2 .[D,,D,]2 .[E,,E,]2 .[G,,G,]2 | .[C,C]2 .[G,,G,]2 .[C,,C,]2 .[D,,D,]2 | %91
 [E,,E,]2 [F,,F,]2 [G,,G,]2 [E,E]2 | [E,,E,]2 [F,,F,]2 [G,,G,]2 [D,D]2 | [G,,G,]6 [D,D]2 | %94
 [G,,G,]2 [D,D]2 [G,,G,]2 [E,E]2 | [C,C]6 ([_D,_D]2 | %96
 [C,C]2 [B,,B,]2 [A,,A,]2) ([F,,F,][_D,,_D,]) | ([C,,C,]2 [A,,,A,,]2 [G,,,G,,]2) G,,2 | %98
 ([C,,C,]4 [G,,,G,,]4) | [C,,,C,,]6 (C,,C,) | C,2 (C,C) C2 (C,,C,) | C,2 (C,C) C2 (C,,C,) | %102
 C,2 (C,C) C2 (C,,C,) | C,2 (C,C) C2 (C,,C,) | C,2 (C,C) C2 (C,,C,) | C,2 (C,C) C2 .[G,,G,]2 | %106
 .[C,,C,]2 .[D,,D,]2 .[E,,E,]2 .[G,,G,]2 | .[C,C]2 .[G,,G,]2 .[C,,C,]2 .[D,,D,]2 | %108
 .[E,,E,]2 .[F,,F,]2 .[G,,G,]2 .[E,E]2 | ([E,,E,]2 [F,,F,]2) .[G,,G,]2 .[D,D]2 | [G,,G,]6 .[D,D]2 | %111
 .[G,,G,]2 .[D,D]2 .[G,,G,]2 .[E,E]2 | [C,C]6 ([_D,_D]2 | %113
 [C,C]2 [B,,B,]2 [A,,A,]2) ([F,,F,][_D,,_D,]) | ([C,,C,]2 [A,,,A,,]2 [G,,,G,,]2) .[G,,G,]2 | %115
 [C,,C,]4 [G,,,G,,]4 | C,4 x2 |] %117
V:5
 x2 | x8 | x8 | x8 | x8 | x8 | x8 | x8 | x8 | x8 | x8 | x8 |: x8 | x8 | x8 | x8 | x8 | x8 | x8 | %19
 x8 | x8 | x8 | x8 | x8 | x8 | x6 F2 | (E2 F2) D2 x2 | x4 (C2 =B,2) | x8 :| x8 | x8 | x8 | x8 | %33
 x8 | x8 | x8 | x8 | x8 | x8 | x8 | x8 | x8 | x8 | x8 | x8 | x8 | x8 | x8 | x8 | x8 | x8 | x8 || %52
[K:Ab] x8 | x8 | x8 | x8 | x8 | [=DA]2 x6 | ([=D=d][Ee]) x6 | ([Ee][Ff]) x6 | x8 | x8 | x8 | x8 | %64
 x8 | x8 | x8 | [=DA]2 x6 | ([=D=d][Ee]) x6 | ([Ee][Ff]) x6 | x8 | x8 ||[K:Eb] x8 | x8 | x8 | x8 | %76
 x8 | x8 | x8 | x8 | x8 | x8 | x8 | x8 | x8 | x8 | x8 | x8 | x8 | x8 | x8 | x8 | x8 | x8 | x8 | %95
 x8 | x6 F2 | (E2 F2) x4 | x4 (C2 =B,2) | x8 | x8 | x8 | x8 | x8 | x8 | x8 | x8 | x8 | x8 | x8 | %110
 x8 | x8 | x8 | x6 F2 | (E2 F2) x4 | x4 (C2 =B,2) | x6 |] %117
V:6
 x2 | x8 | x8 | x8 | x8 | x8 | x8 | x8 | x8 | x8 | x8 | x8 |: x8 | x8 | x8 | x8 | x8 | x8 | x8 | %19
 x8 | x8 | x8 | x8 | x8 | x8 | x8 | x8 | x8 | x8 :| x8 | x8 | x8 | x8 | x8 | x8 | x8 | x8 | x8 | %38
 x8 | x8 | x8 | x8 | x8 | x8 | x8 | x8 | x8 | x8 | x8 | x8 | x8 | x8 ||[K:Ab] x8 | x8 | x8 | x8 | %56
 x8 | x8 | x8 | x8 | x8 | x8 | x8 | x8 | x8 | x8 | x8 | x8 | x8 | x8 | x8 | x8 ||[K:Eb] x8 | x8 | %74
 x8 | x8 | x8 | x8 | x8 | x8 | x8 | x8 | x8 | x8 | x8 | x8 | x8 | x8 | x8 | x8 | x8 | x8 | x8 | %93
 x8 | x8 | x8 | x8 | x8 | x8 | x8 | x8 | x8 | x8 | x8 | x8 | x8 | x8 | x8 | x8 | x8 | x8 | x8 | %112
 x8 | x8 | x8 | x8 | [C,,,C,,]4 z2 |] %117

